/* XPM */
static const char * proj_ortho[] = {
"32 32 8 1",
" 	c None",
".	c #A6CAF0",
"+	c #121212",
"@	c #000000",
"#	c #A5C9EF",
"$	c #BFBFBF",
"%	c #F609D6",
"&	c #101317",
"................................",
"................................",
"................................",
"................................",
"................................",
"................................",
"................................",
"................................",
"................................",
"..........+@@@@@@@@@@@###.......",
"..........++.........@@##.......",
"..........+.+........@$@#.......",
"..........+..+.......@$$@.......",
".....%....+...+@@@@@@@@@@@......",
"..%%%%%...+...+......@$$$@......",
"..%%%%%%..+...+......@$$$@......",
"..%%%%%...+...+......@$$$@......",
".....%....+...+......@$$$@......",
"..........+@@@@@@@@@@@$$$@......",
"...........@..+.......@$$@......",
"............@.+........@$@......",
"..........##.@@.........@@......",
"..........###.&@@@@@@@@@@@......",
"................................",
"................................",
"................................",
"................................",
"................................",
"................................",
"................................",
"................................",
"................................"};
