/* XPM */
static const char * proj_pers[] = {
"32 32 10 1",
" 	c None",
".	c #A6CAF0",
"+	c #000000",
"@	c #A5C9EF",
"#	c #101317",
"$	c #BFBFBF",
"%	c #A4C8EE",
"&	c #F609D6",
"*	c #A0C3E7",
"=	c #010202",
"................................",
"................................",
"................................",
"................................",
"................................",
"................................",
"................................",
"....................++@@@@......",
"................++++.+#@@@......",
"............++++.....+$#@@......",
".........+++@@.......+$$#@......",
".........++%%@.......+++++......",
".........+.+....++++++$$$#......",
".....&...+..++++.....+$$$#......",
"..&&&&&..+..+........+$$$#......",
"..&&&&&&.+..+........+$$$#......",
"..&&&&&..+..+........+$$$#......",
".....&...+..+........+$$$#......",
".........+..+........+$$$#......",
".........++++........#$$$#......",
".........*+.++++++...#$$$#......",
".........@@++.....++++$$$#......",
".........@@@+++.......=$$#......",
"...............++++....#$#......",
"...................++++.##......",
".......................+++......",
"................................",
"................................",
"................................",
"................................",
"................................",
"................................"};
