/* XPM */
static const char * view_front[] = {
"32 32 44 1",
" 	c #A6CAF0",
".	c #34404C",
"+	c #7892AE",
"@	c #98B9DC",
"#	c #384451",
"$	c #A2C6EB",
"%	c #000000",
"&	c #97B8DB",
"*	c #1C2229",
"=	c #93B3D4",
"-	c #374450",
";	c #738DA7",
">	c #0B0E10",
",	c #748DA8",
"'	c #C0C0C0",
")	c #62778E",
"!	c #4A5A6B",
"~	c #8AA7C7",
"{	c #425060",
"]	c #A5C9EF",
"^	c #3F4C5B",
"/	c #5F748A",
"(	c #A0C2E7",
"_	c #060709",
":	c #445362",
"<	c #242C34",
"[	c #9ABBDF",
"}	c #586B80",
"|	c #738CA6",
"1	c #7C97B3",
"2	c #313C47",
"3	c #FF00FF",
"4	c #A4C7ED",
"5	c #1E252C",
"6	c #7C98B4",
"7	c #455464",
"8	c #101418",
"9	c #7089A2",
"0	c #3A4754",
"a	c #273039",
"b	c #9FC2E6",
"c	c #9BBDE0",
"d	c #49596A",
"e	c #3D4B59",
"                                ",
"                                ",
"            .+ @#$              ",
"         %  &*=-=               ",
"        ;%;  ;>,                ",
"        %%%   %                 ",
"         %    %                 ",
"         %                      ",
"         %                      ",
"         %%%%%%%%%              ",
"         %%'''''''%             ",
"         %'%'''''''%    )! ~{   ",
"         %''%'''''''%   ]^/#(   ",
"         %'''%%%%%%%%%    _+    ",
"         %'''%'''''''%  ]:,<[   ",
"         %'''%'''''''%  }| 12   ",
"         %'''%'''''''%          ",
"         %'''%'''''''%    %;    ",
"         %'''%'''33''%%%%%%%%4  ",
"          %''%''''333%    %;    ",
"           %'%''''3333          ",
"            %%'''''33333        ",
"             %%%%%%333333       ",
"                   33 33        ",
"                       33       ",
"             5  67789   33      ",
"             5    90]    33     ",
"           55555  ab      33    ",
"             5   5c        3    ",
"             5  d5ee6           ",
"                                ",
"                                "};
