/* XPM */
static const char * view_norm[] = {
"32 32 7 1",
" 	c None",
".	c #A6CAF0",
"+	c #363636",
"@	c #777777",
"#	c #A5C9EF",
"$	c #000000",
"%	c #C0C0C0",
"................................",
"................................",
"................................",
"................+...............",
"...............+++..............",
".....@@@@@@@@@@@+@@@@@@@@@@.....",
".....@..........+.........@.....",
".....@..........+.........@.....",
".....@.................#..@.....",
".....@....$$$$$$$$$.......@.....",
".....@....$$%%%%%%%$......@.....",
".....@....$%$%%%%%%%$.....@.....",
".....@....$%%$%%%%%%%$....@.....",
".....@....$%%%$$$$$$$$$...@.....",
"....+@....$%%%$%%%%%%%$...@+....",
"...++++...$%%%$%%%%%%%$.+++++...",
"....+@....$%%%$%%%%%%%$...@+....",
".....@....$%%%$%%%%%%%$...@.....",
".....@....$%%%$%%%%%%%$...@.....",
".....@.....$%%$%%%%%%%$...@.....",
".....@......$%$%%%%%%%$...@.....",
".....@.......$$%%%%%%%$...@.....",
".....@........$$$$$$$$$...@.....",
".....@....................@.....",
".....@..........+.........@.....",
".....@..........+.........@.....",
".....@@@@@@@@@@@+@@@@@@@@@@.....",
"...............+++..............",
"................+...............",
"................................",
"................................",
"................................"};
