/* XPM */
static const char * view_back[] = {
"32 32 43 1",
" 	c #A6CAF0",
".	c #34404C",
"+	c #7892AE",
"@	c #98B9DC",
"#	c #384451",
"$	c #000000",
"%	c #97B8DB",
"&	c #1C2229",
"*	c #93B3D4",
"=	c #374450",
"-	c #738DA7",
";	c #0B0E10",
">	c #748DA8",
",	c #C0C0C0",
"'	c #62778E",
")	c #4A5A6B",
"!	c #8AA7C7",
"~	c #425060",
"{	c #A5C9EF",
"]	c #3F4C5B",
"^	c #5F748A",
"/	c #A0C2E7",
"(	c #060709",
"_	c #445362",
":	c #242C34",
"<	c #9ABBDF",
"[	c #586B80",
"}	c #738CA6",
"|	c #7C97B3",
"1	c #313C47",
"2	c #FF00FF",
"3	c #A4C7ED",
"4	c #7C98B4",
"5	c #455464",
"6	c #101418",
"7	c #7089A2",
"8	c #3A4754",
"9	c #1E252C",
"0	c #273039",
"a	c #9FC2E6",
"b	c #9BBDE0",
"c	c #49596A",
"d	c #3D4B59",
"                                ",
"                                ",
"                    .+ @#       ",
"                 $  %&*=*       ",
"                -$-  -;>        ",
"                $$$   $         ",
"                 $    $         ",
"                 $              ",
"                 $              ",
"         $$$$$$$$$              ",
"         $$,,,,,,,$             ",
"  ') !~  $,$,,,,,,,$            ",
"  {]^#/  $,,$,,,,,,,$           ",
"    (+   $,,,$$$$$$$$$          ",
"  {_>:<  $,,,$,,,,,,,$       {  ",
"  [} |1  $,,,$,,,,,,,$          ",
"         $,,,$,,,,,,,$          ",
"    -$   $,,,$,,,,,,,$          ",
"   $$$$$$$,,,$,,,22,,$       3  ",
"    -$    $,,$,,,,222$          ",
"           $,$,,,,2222          ",
"            $$,,,,,22222        ",
"             $$$$$$222222       ",
"                   22 22        ",
"                       22       ",
"                45567   22      ",
"                  78{    22     ",
"           99999  0a      22    ",
"                 9b        2    ",
"                c9dd4           ",
"                                ",
"                                "};
