/* XPM */
static const char * view_bottom[] = {
"32 32 44 1",
" 	c #A6CAF0",
".	c #7C98B4",
"+	c #455464",
"@	c #101418",
"#	c #7089A2",
"$	c #A2C6EB",
"%	c #000000",
"&	c #3A4754",
"*	c #A5C9EF",
"=	c #738DA7",
"-	c #273039",
";	c #9FC2E6",
">	c #1E252C",
",	c #9BBDE0",
"'	c #49596A",
")	c #3D4B59",
"!	c #C0C0C0",
"~	c #62778E",
"{	c #4A5A6B",
"]	c #8AA7C7",
"^	c #425060",
"/	c #3F4C5B",
"(	c #5F748A",
"_	c #384451",
":	c #A0C2E7",
"<	c #060709",
"[	c #7892AE",
"}	c #445362",
"|	c #748DA8",
"1	c #242C34",
"2	c #9ABBDF",
"3	c #586B80",
"4	c #738CA6",
"5	c #7C97B3",
"6	c #313C47",
"7	c #FF00FF",
"8	c #A4C7ED",
"9	c #34404C",
"0	c #98B9DC",
"a	c #97B8DB",
"b	c #1C2229",
"c	c #93B3D4",
"d	c #374450",
"e	c #0B0E10",
"                                ",
"                                ",
"            .++@#$              ",
"         %    #&*               ",
"        =%=   -;                ",
"        %%%  >,                 ",
"         %  '>)).               ",
"         %                      ",
"         %                      ",
"         %%%%%%%%%              ",
"         %%!!!!!!!%             ",
"         %!%!!!!!!!%    ~{ ]^   ",
"         %!!%!!!!!!!%   */(_:   ",
"         %!!!%%%%%%%%%    <[    ",
"         %!!!%!!!!!!!%  *}|12   ",
"         %!!!%!!!!!!!%  34 56   ",
"         %!!!%!!!!!!!%          ",
"         %!!!%!!!!!!!%    %=    ",
"         %!!!%!!!77!!%%%%%%%%8  ",
"          %!!%!!!!777%    %=    ",
"           %!%!!!!7777          ",
"            %%!!!!!77777        ",
"             %%%%%%777777       ",
"                   77 77        ",
"                       77       ",
"                9[ 0_   77      ",
"                abcdc    77     ",
"           >>>>> =e|      77    ",
"                  %        7    ",
"                  %             ",
"                                ",
"                                "};
