/* XPM */
static const char * view_top[] = {
"32 32 45 1",
" 	c None",
".	c #A6CAF0",
"+	c #A2C6EB",
"@	c #62778E",
"#	c #4A5A6B",
"$	c #8AA7C7",
"%	c #425060",
"&	c #A5C9EF",
"*	c #3F4C5B",
"=	c #5F748A",
"-	c #384451",
";	c #A0C2E7",
">	c #060709",
",	c #7892AE",
"'	c #445362",
")	c #748DA8",
"!	c #242C34",
"~	c #9ABBDF",
"{	c #586B80",
"]	c #738CA6",
"^	c #7C97B3",
"/	c #313C47",
"(	c #000000",
"_	c #738DA7",
":	c #C0C0C0",
"<	c #1E252C",
"[	c #FF00FF",
"}	c #A4C7ED",
"|	c #7C98B4",
"1	c #455464",
"2	c #101418",
"3	c #7089A2",
"4	c #3A4754",
"5	c #273039",
"6	c #9FC2E6",
"7	c #9BBDE0",
"8	c #49596A",
"9	c #3D4B59",
"0	c #34404C",
"a	c #98B9DC",
"b	c #97B8DB",
"c	c #1C2229",
"d	c #93B3D4",
"e	c #374450",
"f	c #0B0E10",
"................................",
"................................",
".................+......@#.$%...",
"........................&*=-;...",
"..........................>,....",
"........................&')!~...",
"........................{].^/...",
"................................",
"........................(_......",
".........((((((((((((((((((.....",
".........((:::::::<.....(_......",
".........(:(:::::::(............",
".........(::(:::::::(...........",
".........(:::(((((((((..........",
".........(:::(:::::::(..........",
".........(:::(:::::::(..........",
".........(:::(:::::::(..........",
".........(:::(:::::::(..........",
".........(:::(:::[[::(.......}..",
".........((::(::::[[[(..........",
".........(.(:(::::[[[[..........",
"..|1123..(..((:::::[[[[[........",
"....34&..(...(((((([[[[[[.......",
"....56...(.........[[.[[........",
"...<7...<(<............[[.......",
"..8<99|._(_....<..0,.a-.[[......",
".........(.....<..bcded..[[.....",
".............<<<<<._f)....[[....",
"...............<....(......[....",
"...............<....(...........",
"................................",
"................................"};
