/* XPM */
static const char * view_right[] = {
"32 32 43 1",
" 	c #A6CAF0",
".	c #34404C",
"+	c #7892AE",
"@	c #98B9DC",
"#	c #384451",
"$	c #000000",
"%	c #97B8DB",
"&	c #1C2229",
"*	c #93B3D4",
"=	c #374450",
"-	c #738DA7",
";	c #0B0E10",
">	c #748DA8",
",	c #C0C0C0",
"'	c #7C98B4",
")	c #455464",
"!	c #101418",
"~	c #7089A2",
"{	c #3A4754",
"]	c #A5C9EF",
"^	c #273039",
"/	c #9FC2E6",
"(	c #1E252C",
"_	c #9BBDE0",
":	c #49596A",
"<	c #3D4B59",
"[	c #FF00FF",
"}	c #A4C7ED",
"|	c #62778E",
"1	c #4A5A6B",
"2	c #8AA7C7",
"3	c #425060",
"4	c #3F4C5B",
"5	c #5F748A",
"6	c #A0C2E7",
"7	c #060709",
"8	c #445362",
"9	c #242C34",
"0	c #9ABBDF",
"a	c #586B80",
"b	c #738CA6",
"c	c #7C97B3",
"d	c #313C47",
"                                ",
"                                ",
"                    .+ @#       ",
"                 $  %&*=*       ",
"                -$-  -;>        ",
"                $$$   $         ",
"                 $    $         ",
"                 $              ",
"                 $              ",
"         $$$$$$$$$              ",
"         $$,,,,,,,$             ",
"  '))!~  $,$,,,,,,,$            ",
"    ~{]  $,,$,,,,,,,$           ",
"    ^/   $,,,$$$$$$$$$          ",
"   (_    $,,,$,,,,,,,$          ",
"  :(<<'  $,,,$,,,,,,,$          ",
"         $,,,$,,,,,,,$          ",
"    -$   $,,,$,,,,,,,$          ",
"   $$$$$$$,,,$,,,[[,,$       }  ",
"    -$    $,,$,,,,[[[$          ",
"           $,$,,,,[[[[          ",
"            $$,,,,,[[[[[        ",
"             $$$$$$[[[[[[       ",
"                   [[ [[        ",
"                       [[       ",
"             (  |1 23   [[      ",
"             (  ]45#6    [[     ",
"           (((((  7+      [[    ",
"             (  ]8>90      [    ",
"             (  ab cd           ",
"                                ",
"                                "};
