/* XPM */
static const char * view_left[] = {
"32 32 44 1",
" 	c #A6CAF0",
".	c #34404C",
"+	c #7892AE",
"@	c #98B9DC",
"#	c #384451",
"$	c #A2C6EB",
"%	c #000000",
"&	c #97B8DB",
"*	c #1C2229",
"=	c #93B3D4",
"-	c #374450",
";	c #738DA7",
">	c #0B0E10",
",	c #748DA8",
"'	c #C0C0C0",
")	c #7C98B4",
"!	c #455464",
"~	c #101418",
"{	c #7089A2",
"]	c #3A4754",
"^	c #A5C9EF",
"/	c #273039",
"(	c #9FC2E6",
"_	c #1E252C",
":	c #9BBDE0",
"<	c #49596A",
"[	c #3D4B59",
"}	c #FF00FF",
"|	c #A4C7ED",
"1	c #62778E",
"2	c #4A5A6B",
"3	c #8AA7C7",
"4	c #425060",
"5	c #3F4C5B",
"6	c #5F748A",
"7	c #A0C2E7",
"8	c #060709",
"9	c #445362",
"0	c #242C34",
"a	c #9ABBDF",
"b	c #586B80",
"c	c #738CA6",
"d	c #7C97B3",
"e	c #313C47",
"                                ",
"                                ",
"            .+ @#$              ",
"         %  &*=-=               ",
"        ;%;  ;>,                ",
"        %%%   %                 ",
"         %    %                 ",
"         %                      ",
"         %                      ",
"         %%%%%%%%%              ",
"         %%'''''''%             ",
"         %'%'''''''%    )!!~{   ",
"         %''%'''''''%     {]^   ",
"         %'''%%%%%%%%%    /(    ",
"         %'''%'''''''%   _:     ",
"         %'''%'''''''%  <_[[)   ",
"         %'''%'''''''%          ",
"         %'''%'''''''%    %;    ",
"         %'''%'''}}''%%%%%%%%|  ",
"          %''%''''}}}%    %;    ",
"           %'%''''}}}}          ",
"            %%'''''}}}}}        ",
"             %%%%%%}}}}}}       ",
"                   }} }}        ",
"                       }}       ",
"                12 34   }}      ",
"                ^56#7    }}     ",
"           _____  8+      }}    ",
"                ^9,0a      }    ",
"                bc de           ",
"                                ",
"                                "};
